X:291
T:Auld Gudeman, The
S:Can't remember
Z:Nigel Gatherer <gatherer@argonet.co.uk>
M:6/8
L:1/8
K:G
D|G>AG F2 D|G>AB A2 D|G>AG F2 D|E>FE D2 E/F/|G>AG FED|
G>AB A2 D|GAG FED|E>FE D2::D|GFG ABc|d>cB A2 D|
G>FG ABc|B>AG d2 D|G>FG ABc|d>cB A2 D|G>AG F2 d|E2 F G2:|
